storage/app/icons/phosphoricons/light/briefcase-metal-light.svg

<svg xmlns="http://www.w3.org/2000/svg" fill="currentColor" viewBox="0 0 256 256"><path d="M216 58h-42V48a22 22 0 0 0-22-22h-48a22 22 0 0 0-22 22v10H40a14 14 0 0 0-14 14v128a14 14 0 0 0 14 14h176a14 14 0 0 0 14-14V72a14 14 0 0 0-14-14M38 110h180v52H38Zm56-62a10 10 0 0 1 10-10h48a10 10 0 0 1 10 10v10H94ZM40 70h176a2 2 0 0 1 2 2v26H38V72a2 2 0 0 1 2-2m176 132H40a2 2 0 0 1-2-2v-26h180v26a2 2 0 0 1-2 2"/></svg>

<svg xmlns="http://www.w3.org/2000/svg" viewBox="0 0 256 256" fill="currentColor"><path d="M216,58H174V48a22,22,0,0,0-22-22H104A22,22,0,0,0,82,48V58H40A14,14,0,0,0,26,72V200a14,14,0,0,0,14,14H216a14,14,0,0,0,14-14V72A14,14,0,0,0,216,58ZM38,110H218v52H38ZM94,48a10,10,0,0,1,10-10h48a10,10,0,0,1,10,10V58H94ZM40,70H216a2,2,0,0,1,2,2V98H38V72A2,2,0,0,1,40,70ZM216,202H40a2,2,0,0,1-2-2V174H218v26A2,2,0,0,1,216,202Z"/></svg>
